X:1
T:Often Had I Heard the Story
T:Often Had I Heard the Story
T:Victoria Booth-Clibborn Demarest
T:Edgar Simmons Buchanan, 1918
T:Public Domain Courtesy of the Cyber Hymnal™
T:Public Domain Courtesy of the Cyber Hymnal™
C:Victoria Booth-Clibborn Demarest
Z:Public Domain
Z:Courtesy of the Cyber Hymnal™
%%score ( 1 2 ) ( 3 4 )
L:1/8
Q:1/4=100
M:4/4
K:G
V:1 treble 
V:2 treble 
V:3 bass 
V:4 bass 
V:1
 [GB]3 [GB] [FA]>[EG] [FA]>[FB] | [DG]4 [CE]4 | D2 [DG]2 [EG]2 [GA]2 | [FB]8 | %4
w: 1.~Oft- en had I heard the|sto- ry|Thou didst die for|me;|
w: 2.~Speak to me, O Ho- ly|Spir- it;|Show my mis- er-|y;|
w: 3.~Let me live, O lov- ing|Je- sus,|Wit- ness- ing Thy|power;|
 [GB]3 [GB] [FA]>[EG] [FA]>[FB] | [EG]4 [^CE]4 | D2 [DG]2 [DG]2 [DF]2 | [DG]8 | %8
w: Thou didst leave Thy throne in|glo- ry,|That I might love|Thee:|
w: Show me my Re- deem- er’s|mer- it,|As my on- ly|plea.|
w: Let me hear Thy sweet “I|love you,”|Whis- pered ev- ery|hour.|
 [Gc]3 [Gc] [Gc]>[Gc] G>[GA] | [GB]4 [DG]4 | [GA]3 [GA] [GA]E[DF][EG] | [FA]8 | %12
w: But with sense and sight per-|vert- ed|By the sub- tle power of|sin,|
w: Fill my spir- it with Thy|shin- ing,|Bid Thy fruits in me in-|crease,|
w: Make me deep- er in my|yearn- ing,|For the world to know Thy|grace,|
 [DB]3 [GB] [FA]>[EG] [FA]>[FB] | [EG]4 [^CE]4 | D2 [DG]2 [DG]2 [DF]2 | [DG]8 | %16
w: And with thoughts from God di-|vert- ed,|All was dark with-|in.|
w: Give in place of past re-|pin- ing,|Love and joy and|peace.|
w: For the joy of Thy re-|turn- ing,|For Thy glor- ious|face.|
 [Gd]3 [Gd] [Fd]>[FA] [GB]>[Fc] | [FB]4 G4 | [Gc]3 [Gc] [Fc]2 [Fd]2 | [GB]8 | %20
w: Thou didst call me to Thy|glo- ry,|Thou didst die for|me;|
w: Thou didst call me to Thy|glo- ry,|Thou didst die for|me;|
w: Thou didst call me to Thy|glo- ry,|Thou didst die for|me;|
 [Gd]3 [Fd] [=Fe]>[Fd] [Fc]>[FB] | [EB]4 [EA]4 | [FA]3 [FB] [Fc]2 [DF]2 | [DG]8 |] %24
w: But my heart re- pelled the|sto- ry,|Shut the door to|Thee.|
w: Now my heart ac- cepts the|sto- ry,|Yields it- self to|Thee.|
w: Quick- ly come; com- plete the|sto- ry;|Take me up to|Thee.|
V:2
 x8 | x8 | D2 x6 | x8 | x8 | x8 | D2 x6 | x8 | x6 G3/2 x/ | x8 | x5 E x2 | x8 | x8 | x8 | D2 x6 | %15
 x8 | x8 | x4 G4 | x8 | x8 | x8 | x8 | x8 | x8 |] %24
V:3
 [G,D]3 [G,D] [D,C]>[D,B,] [D,C]>[D,D] | [G,B,]4 [G,C]4 | [G,B,]2 [D,B,]2 [C,C]2 [C,CE]2 | %3
 [B,,B,^D]8 | [G,D]3 [G,D] [D,C]>[D,B,] [D,C]>[D,D] | [E,B,]4 [G,_B,]4 | %6
 [G,B,]2 [D,B,]2 [D,A,]2 [D,C]2 | [G,,G,B,]8 | [G,E]3 [G,E] [G,E]>[G,E] [G,E]>[G,_E] | %9
 [G,D]4 [G,B,]4 | [E,^C]3 [E,C] [A,C][A,C][A,D][A,C] | (D4 C4) | %12
 [G,B,]3 [G,D] [D,C]>[D,B,] [D,C]>[D,D] | [E,B,]4 [G,_B,]4 | [G,B,]2 [D,B,]2 [D,A,]2 [D,C]2 | %15
 [G,,G,B,]8 | [G,B,]3 [G,B,] [D,A,]>[D,D] [G,D]>[A,D] | [B,^D]4 [E,E]4 | %18
 [A,E]3 [A,E] [A,D]2 [D,D]2 | [G,,G,D]8 | [G,B,]3 [G,A,] [G,B,]>[G,B,] [G,C]>[^G,D] | %21
 [A,D]4 [A,C]4 | [D,C]3 [D,B,] [D,A,]2 [D,C]2 | [G,,G,B,]8 |] %24
V:4
 x8 | x8 | x8 | x8 | x8 | x8 | x8 | x8 | x8 | x8 | x8 | D,8 | x8 | x8 | x8 | x8 | x8 | x8 | x8 | %19
 x8 | x8 | x8 | x8 | x8 |] %24

